svg/justvector/picasa.svg

<svg xmlns="http://www.w3.org/2000/svg" viewBox="0 0 100 100" enable-background="new 0 0 100 100"><path d="m31.564 69.69c.966 0 57.23 0 58.859 0-6.896 14.257-20.774 23.86-36.32 25.311h-8.249c-4.931-.46-9.715-1.736-14.289-3.791-.0001-.646-.0001-20.584-.0001-21.52m36.989-60.65c-5.87-2.672-12.11-4.04-18.555-4.04-5.362 0-10.64 1.035-15.713 2.941 1.189 1.081 32.735 29.77 34.27 31.17 0-2.066 0-29.431 0-30.07m-39.06.959c-15.11 7.769-24.497 23.09-24.497 40.09 0 3.872.583 7.809 1.637 11.712 1.222-1.112 39.11-35.602 39.889-36.32-.762-.692-16.519-15.02-17.03-15.488m-2.66 78.6c0-1.761 0-36.695 0-38.772-1.502 1.371-18.08 16.464-18.593 16.934 3.608 9.06 10.191 16.752 18.593 21.838m46.46-76.979c0 1.793 0 52.35 0 53.31.924 0 18.434 0 19.15 0 1.674-4.8 2.55-9.795 2.55-14.844 0-15.671-8.315-30.3-21.7-38.467"/></svg>

<?xml version="1.0" encoding="iso-8859-1"?>
<!-- Generator: Adobe Illustrator 15.0.0, SVG Export Plug-In . SVG Version: 6.00 Build 0)  -->
<!DOCTYPE svg PUBLIC "-//W3C//DTD SVG 1.1//EN" "http://www.w3.org/Graphics/SVG/1.1/DTD/svg11.dtd">
<svg version="1.1" id="Icons" xmlns="http://www.w3.org/2000/svg" xmlns:xlink="http://www.w3.org/1999/xlink" x="0px" y="0px"
	 width="100px" height="100px" viewBox="0 0 100 100" style="enable-background:new 0 0 100 100;" xml:space="preserve">
<path id="Picassa" d="M31.564,69.689c0.966,0,57.23,0,58.859,0C83.527,83.946,69.649,93.549,54.103,95h-8.249
	c-4.931-0.46-9.715-1.736-14.289-3.791C31.564,90.563,31.564,70.625,31.564,69.689z M68.553,9.043C62.683,6.371,56.44,5,49.998,5
	c-5.362,0-10.64,1.035-15.713,2.941c1.189,1.081,32.735,29.77,34.268,31.168C68.553,37.043,68.553,9.678,68.553,9.043z
	 M29.497,10.002C14.386,17.771,5,33.092,5,50.094c0,3.872,0.583,7.809,1.637,11.712c1.222-1.112,39.108-35.602,39.889-36.316
	C45.764,24.798,30.007,10.467,29.497,10.002z M26.837,88.606c0-1.761,0-36.695,0-38.772C25.335,51.205,8.761,66.298,8.244,66.768
	C11.852,75.83,18.435,83.52,26.837,88.606z M73.3,11.627c0,1.793,0,52.352,0,53.311c0.924,0,18.434,0,19.15,0
	c1.674-4.8,2.55-9.795,2.55-14.844C95,34.423,86.685,19.793,73.3,11.627z"/>
</svg>
